X:1
T:A minor James C. Lowry, 1820
T:From Latin, 16th Century, Many versions                      86. 86. (C. M.)
T:Jerusalem
T:Transcribed from The Kentucky Harmony, 1825
%%score [ 1 2 3 4 ]
L:1/8
Q:1/4=120
M:4/4
K:C
V:1 treble nm="Tr." snm="Tr."
V:2 treble nm="C." snm="C."
V:3 treble-8 nm="T." snm="T."
V:4 bass nm="B." snm="B."
V:1
 e4 | e2 B2 A2 G2 | A2 GA B4 | c4 G2 A2 | B2 AG E4- | E4 e4 | e2 B2 A2 G2 | A2 GA B4 | %8
w: 1.~Je-|ru- sa- lem, my|hap- py * home,|O how I|long for * thee;~|_ When|shall my sor- rows|have an * end?|
 (c3 d) e2 e2 | e2 gf (edcA | B6) EG | A2 GA E2 G2 | A8 |] %13
w: Thy * joys when|shall I * see?~ _ _ _|_ Thy *|joys when * shall I|see?|
V:2
 E4 | E2 E2 E2 G2 | E2 E2 E4 | E4 G2 E2 | EF A2 A4- | A4 E4 | E2 E2 E2 G2 | E2 E2 E4 | %8
w: 2.~Thy|walls are all of|pre- cious stone,|Most glo- rious|to * be- hold!~|_ Thy|gates are rich- ly|set with pearl,|
 (E3 G) A2 G2 | E2 cB (A4 | G6) AB | A2 GF E2 E2 | E8 |] %13
w: Thy * streets are|paved with * gold,~|_ Thy *|streets are * paved with|gold.|
V:3
 A4 | c2 e2 dc d2 | e2 cA B4 | A4 c2 e2 | g2 ec e4- | e4 A4 | c2 e2 dc d2 | e2 cA B4 | %8
w: 3.~Thy|gar- den and * thy|plea- sant * green|My stu- dy|long has * been;~|_ Such|spar- kling light * by|hu- man * sight|
 (e3 d) c2 B2 | A2 G2 (ABce | d6) cd | e2 ed c2 B2 | A8 |] %13
w: Has * ne- ver|yet been seen,~ _ _ _|_ Has *|ne- ver * yet been|seen.|
V:4
 A,4 | A,2 E,2 D,2 G,2 | A,2 A,,2 E,4 | C,4 G,2 A,2 | E,2 E,2 A,4- | A,4 A,4 | A,2 E,2 D,2 G,2 | %7
w: 4.~O|when, thou ci- ty|of my God,|Shall I thy|courts a- scend?~|_ Where|con- gre- ga- tions|
 A,2 A,,2 E,4 | (C,3 D,) E,2 E,2 | %9
w: ne'er break up,|And * Sab- baths|
 E,2"^________________________________________________________\nEdited by B. C. Johnston, 2017\n   1, Measure 4, \nCounter\n: E-E-D changed to E-G-E.\n   2. Measure 5, \nCounter\n: E-F-G-A changed to E-F-A-A.\n   3. Measure 12, Treble: the last two notes changed from eighth-notes E-F to quarter-notes E-G." C,2 (E,D,E,F, | %10
w: have no end,~ _ _ _|
 G,6) C,2 | A,,2 C,D, E,2 E,2 | A,,8 |] %13
w: _ And|Sab- baths * have no|end.|

